src/assets/bold/lm-pencil-path-bold.svg

<svg width="24" height="24" viewBox="0 0 24 24" fill="none" xmlns="http://www.w3.org/2000/svg" fill="currentColor">
<path d="M15.25 5C15.25 3.46479 16.4648 2.25 18 2.25C19.5352 2.25 20.75 3.46479 20.75 5V17C20.75 17.1989 20.671 17.3897 20.5303 17.5303L18.5303 19.5303C18.2374 19.8232 17.7626 19.8232 17.4697 19.5303L15.4697 17.5303C15.329 17.3897 15.25 17.1989 15.25 17V5ZM18 3.75C17.2932 3.75 16.75 4.29321 16.75 5V16.6893L18 17.9393L19.25 16.6893V5C19.25 4.29321 18.7068 3.75 18 3.75Z" fill="black"/>
<path d="M15.25 7C15.25 6.58579 15.5858 6.25 16 6.25H20C20.4142 6.25 20.75 6.58579 20.75 7C20.75 7.41421 20.4142 7.75 20 7.75H16C15.5858 7.75 15.25 7.41421 15.25 7Z" fill="black"/>
<path d="M5.25 11C5.25 10.5858 5.58579 10.25 6 10.25H9C9.72935 10.25 10.4288 10.5397 10.9445 11.0555C11.4603 11.5712 11.75 12.2707 11.75 13C11.75 13.7293 11.4603 14.4288 10.9445 14.9445C10.4288 15.4603 9.72935 15.75 9 15.75H5C4.66848 15.75 4.35054 15.8817 4.11612 16.1161C3.8817 16.3505 3.75 16.6685 3.75 17C3.75 17.3315 3.8817 17.6495 4.11612 17.8839C4.35054 18.1183 4.66848 18.25 5 18.25H18C18.4142 18.25 18.75 18.5858 18.75 19C18.75 19.4142 18.4142 19.75 18 19.75H5C4.27065 19.75 3.57118 19.4603 3.05546 18.9445C2.53973 18.4288 2.25 17.7293 2.25 17C2.25 16.2707 2.53973 15.5712 3.05546 15.0555C3.57118 14.5397 4.27065 14.25 5 14.25H9C9.33152 14.25 9.64946 14.1183 9.88388 13.8839C10.1183 13.6495 10.25 13.3315 10.25 13C10.25 12.6685 10.1183 12.3505 9.88388 12.1161C9.64946 11.8817 9.33152 11.75 9 11.75H6C5.58579 11.75 5.25 11.4142 5.25 11Z" fill="black"/>
</svg>

<svg xmlns="http://www.w3.org/2000/svg" width="24" height="24" fill="currentColor" viewBox="0 0 24 24">
  <path d="M15.25 5A2.73 2.73 0 0 1 18 2.25 2.73 2.73 0 0 1 20.75 5v12a.75.75 0 0 1-.22.53l-2 2a.75.75 0 0 1-1.06 0l-2-2a.75.75 0 0 1-.22-.53V5ZM18 3.75A1.23 1.23 0 0 0 16.75 5v11.69L18 17.94l1.25-1.25V5A1.23 1.23 0 0 0 18 3.75Z"/>
  <path d="M15.25 7a.75.75 0 0 1 .75-.75h4a.75.75 0 0 1 0 1.5h-4a.75.75 0 0 1-.75-.75Zm-10 4a.75.75 0 0 1 .75-.75h3a2.75 2.75 0 1 1 0 5.5H5a1.25 1.25 0 0 0 0 2.5h13a.75.75 0 0 1 0 1.5H5a2.75 2.75 0 1 1 0-5.5h4a1.25 1.25 0 0 0 0-2.5H6a.75.75 0 0 1-.75-.75Z"/>
</svg>
